X:2383
T:C.N.E. Breakdown
C:Ward Allen
R:Breakdown
M:2/4
L:1/16
K:A
A2|CEAE FAEA|cAeA ceAc|GBeB ceBe|gebe gbge|
CEAE FAEA|cAeA ceAc|eagf edcB|A2c2 A2:|
K:E
c2|B4 -BcBA|GBef g2fg|a4 -agfa|gfeg fe^dc|
B4 -BcBA|GBef g2fg|a2fa bf^df|e2g2 e2:|


